svg/emoji/terror_line.svg

<?xml version="1.0" encoding="UTF-8"?>
<svg width="24px" height="24px" viewBox="0 0 24 24" version="1.1" xmlns="http://www.w3.org/2000/svg" xmlns:xlink="http://www.w3.org/1999/xlink">
    <title>terror_line</title>
    <g id="Icon" stroke="none" stroke-width="1" fill="none" fill-rule="evenodd">
        <g id="Emoji" transform="translate(-864.000000, 0.000000)">
            <g id="terror_line" transform="translate(864.000000, 0.000000)">
                <path d="M24,0 L24,24 L0,24 L0,0 L24,0 Z M12.5935,23.2578 L12.5819,23.2595 L12.5109,23.295 L12.4919,23.2987 L12.4767,23.295 L12.4057,23.2595 C12.3958,23.2564 12.387,23.259 12.3821,23.2649 L12.378,23.2758 L12.3609,23.7031 L12.3659,23.7235 L12.3769,23.7357 L12.4805,23.8097 L12.4953,23.8136 L12.5071,23.8097 L12.6107,23.7357 L12.6233,23.7197 L12.6267,23.7031 L12.6096,23.2758 C12.6076,23.2657 12.601,23.2593 12.5935,23.2578 Z M12.8584,23.1453 L12.8445,23.1473 L12.6598,23.2397 L12.6499,23.2499 L12.6472,23.2611 L12.6651,23.6906 L12.6699,23.7034 L12.6784,23.7105 L12.8793,23.8032 C12.8914,23.8069 12.9022,23.803 12.9078,23.7952 L12.9118,23.7812 L12.8777,23.1665 C12.8753,23.1546 12.8674,23.147 12.8584,23.1453 Z M12.143,23.1473 C12.1332,23.1424 12.1222,23.1453 12.1156,23.1526 L12.1099,23.1665 L12.0758,23.7812 C12.0751,23.7927 12.0828,23.8019 12.0926,23.8046 L12.1083,23.8032 L12.3092,23.7105 L12.3186,23.7024 L12.3225,23.6906 L12.3404,23.2611 L12.3372,23.2485 L12.3278,23.2397 L12.143,23.1473 Z" id="MingCute" fill-rule="nonzero"></path>
                <path d="M12,2 C17.5228,2 22,6.47715 22,12 C22,17.5228 17.5228,22 12,22 C6.47715,22 2,17.5228 2,12 C2,6.47715 6.47715,2 12,2 Z M12,4 C7.58172,4 4,7.58172 4,12 C4,16.4183 7.58172,20 12,20 C16.4183,20 20,16.4183 20,12 C20,7.58172 16.4183,4 12,4 Z M12,11 C13.6569,11 15,12.3431 15,14 L15,15 C15,16.6569 13.6569,18 12,18 C10.3431,18 9,16.6569 9,15 L9,14 C9,12.3431 10.3431,11 12,11 Z M12,13 C11.4477,13 11,13.4477 11,14 L11,15 C11,15.5523 11.4477,16 12,16 C12.5523,16 13,15.5523 13,15 L13,14 C13,13.4477 12.5523,13 12,13 Z M10.0054,7.65555 C10.4978,8.14796 10.4938,8.80189 10.3845,9.23908 C10.2696,9.69879 10.002,10.1338 9.6518,10.484 C9.3016,10.8342 8.86661,11.1018 8.4069,11.2167 C7.96971,11.326 7.31578,11.3299 6.82337,10.8375 C6.33097,10.3451 6.33492,9.6912 6.44422,9.25401 C6.55915,8.7943 6.82673,8.35931 7.17693,8.00911 C7.52713,7.65891 7.96212,7.39133 8.42183,7.2764 C8.85902,7.1671 9.51295,7.16315 10.0054,7.65555 Z M13.9946,7.65555 C14.4871,7.16315 15.141,7.1671 15.5782,7.2764 C16.0379,7.39133 16.4729,7.65891 16.8231,8.00911 C17.1733,8.35931 17.4409,8.7943 17.5558,9.25401 C17.6651,9.6912 17.669,10.3451 17.1766,10.8375 C16.6842,11.3299 16.0303,11.326 15.5931,11.2167 C15.1334,11.1018 14.6984,10.8342 14.3482,10.484 C13.998,10.1338 13.7304,9.69879 13.6155,9.23908 C13.5062,8.80189 13.5022,8.14796 13.9946,7.65555 Z" id="形状" fill="#09244B"></path>
            </g>
        </g>
    </g>
</svg>

<svg xmlns="http://www.w3.org/2000/svg" width="24" height="24"><g fill="none" fill-rule="evenodd"><path d="M24 0v24H0V0h24ZM12.594 23.258l-.012.002-.071.035-.02.004-.014-.004-.071-.036c-.01-.003-.019 0-.024.006l-.004.01-.017.428.005.02.01.013.104.074.015.004.012-.004.104-.074.012-.016.004-.017-.017-.427c-.002-.01-.009-.017-.016-.018Zm.264-.113-.014.002-.184.093-.01.01-.003.011.018.43.005.012.008.008.201.092c.012.004.023 0 .029-.008l.004-.014-.034-.614c-.003-.012-.01-.02-.02-.022Zm-.715.002a.023.023 0 0 0-.027.006l-.006.014-.034.614c0 .012.007.02.017.024l.015-.002.201-.093.01-.008.003-.011.018-.43-.003-.012-.01-.01-.184-.092Z"/><path fill="#09244B" d="M12 2c5.523 0 10 4.477 10 10s-4.477 10-10 10S2 17.523 2 12 6.477 2 12 2Zm0 2a8 8 0 1 0 0 16 8 8 0 0 0 0-16Zm0 7a3 3 0 0 1 3 3v1a3 3 0 1 1-6 0v-1a3 3 0 0 1 3-3Zm0 2a1 1 0 0 0-1 1v1a1 1 0 1 0 2 0v-1a1 1 0 0 0-1-1Zm-1.995-5.344c.493.492.489 1.146.38 1.583-.115.46-.383.895-.733 1.245-.35.35-.785.618-1.245.733-.437.109-1.091.113-1.584-.38-.492-.492-.488-1.146-.379-1.583.115-.46.383-.895.733-1.245.35-.35.785-.618 1.245-.733.437-.109 1.09-.113 1.583.38Zm3.99 0c.492-.493 1.146-.489 1.583-.38.46.115.895.383 1.245.733.35.35.618.785.733 1.245.11.437.113 1.091-.38 1.584-.492.492-1.146.488-1.583.379-.46-.115-.895-.383-1.245-.733-.35-.35-.618-.785-.732-1.245-.11-.437-.114-1.091.379-1.583Z"/></g></svg>
